X: 1
T: Summer on Marshall Pond
M: 3/4
L: 1/4
C: Pam Weeks
S: August 4, 1997
R: waltz
F: http://www.megalink.net/~pweeks/SummeronMarshallPondabc.html	 2005-06-20 15:38:03 UT
K: G
|:"G"B> c B/G/ | "G/F#"B> c B/G/ | "C"c/d/ e g | "D7"d2 c | "G"B> c B/G/ | "G/F#"B> A B/d/ | "Am"e/d/ c B | "D7"A3 |
| "G"B> c B/G/ | "Bm"B> c B/G/ | "C/E"c/d/ e g | "Em"b2 a | "C"g> f g/e/ | "G"d<B G | "C"(3c/d/c/ B "D"A |1 "G"G3 :|2 "G"G2 |
|: F \
| "Em"E> F G | "C"e> f g | "Bm"f e d | "Em"g2 f | "C"e>G G | "Am"A G A | "Bm"B> c B | "D"A G F |
| "Em"E> F G | "C"e> f g | "D"f b a | "Em"g2 b/a/ | "C"g>f g/e/ | "G"d<B G | "D"(3c/d/c/ B A |1 "C"G2 :||2 "G"G3 ||
